X:1
T:Alm\"a-Arni-Tanz (Marsch-Walzer)  C
T:Hanny Christen. Bd.VI  Fribourg, Welschland, Wallis, Bern I. S.320 (wz05838) orig. C-Dur
T: "Riebg\"arteler", T\"anze aus Halisberg. S.319-338
T: Aus dem Repertoire von Johann und Melchior Zenger.
%%MIDI program 21
R:waltz
M:3/4
L:1/4
K:C %%MIDI gchordon
"C"c3 | c3 | cde | "G7"f3 | B3 | B3 | Bdf | "C"e3 | c3 | c3 | cde | 
"G7"f3 | d2c | B2A | Bed | "C"czz |: [L:1/8] "C"c2 Ge dc | "G7"B2D2D2 | B2D2D2 | 
"C"c2E2E2 | c2Ge dc | "G7"B2D2D2 | B2G2B2 | "C"c2z2z2 :| "C"eg gc ec | "G7"Bf fB d2 | 
Bf fB fB | "C"ce eGc2 | EG GE GE | "G7"GB BGB2 | GB dB dB | "C"c2c2z2 |] 
% wz05838

